svg/monochrome/signal-alt-3.svg

<svg xmlns="http://www.w3.org/2000/svg" viewBox="0 0 24 24"><path class="uim-quaternary" d="M6,23H2a.99974.99974,0,0,1-1-1V16a.99974.99974,0,0,1,1-1H6a.99974.99974,0,0,1,1,1v6A.99974.99974,0,0,1,6,23Z"/><path class="uim-tertiary" d="M14,23H10a.99974.99974,0,0,1-1-1V10a.99974.99974,0,0,1,1-1h4a.99974.99974,0,0,1,1,1V22A.99974.99974,0,0,1,14,23Z"/><path class="uim-primary" d="M22,23H18a.99974.99974,0,0,1-1-1V2a.99974.99974,0,0,1,1-1h4a.99974.99974,0,0,1,1,1V22A.99974.99974,0,0,1,22,23Z"/></svg>

<svg xmlns="http://www.w3.org/2000/svg" viewBox="0 0 24 24"><path class="uim-quaternary" d="M6 23H2a1 1 0 0 1-1-1v-6a1 1 0 0 1 1-1h4a1 1 0 0 1 1 1v6a1 1 0 0 1-1 1Z"/><path class="uim-tertiary" d="M14 23h-4a1 1 0 0 1-1-1V10a1 1 0 0 1 1-1h4a1 1 0 0 1 1 1v12a1 1 0 0 1-1 1Z"/><path class="uim-primary" d="M22 23h-4a1 1 0 0 1-1-1V2a1 1 0 0 1 1-1h4a1 1 0 0 1 1 1v20a1 1 0 0 1-1 1Z"/></svg>
